X:2056
T:Banks and Braes O Bonnie Doon, Ye
R:Waltz
C:Trad.
O:Scotland
Z:Paul Hardy's Session Tunebook 2022 (see www.paulhardy.net). Creative Commons cc by-nc-sa licenced.
M:3/4
L:1/4
Q:1/4=120
K:G
D|"G"G2G|"D7"A>GA|"G"BdB|"D7"AGA|"G"B>AG|"C"GED|1 "Am"DEG|"D7"A2:|2 "D7"DEG|"G"G2|]
B|"G"d2e|dBG|d2e|dBG|dBG|dBG|"Em"edB|"D7"A2||
D|"G"G2G|"D7"A>GA|"G"BdB|"D7"AGA|"G"B>AG|"Em"GED|"C"DEG|"G"G2|]

